markup/sourceimages/logo.svg

<svg xmlns="http://www.w3.org/2000/svg" width="190" height="57"><path fill-rule="evenodd" fill="#5393DD" d="M154.068 29.252l9.426-23.674h14.122l12.393 31.127c-10.61-2.996-21.117-6.039-35.941-7.453zm17.525-8.911c-.446-1.467-.839-3.113-1.038-4.669-.199 1.556-.591 3.202-1.038 4.669l-1.531 4.803h5.087l-1.48-4.803zm-9.076 35.814h-4.519l-2.129-6.99-2.315 6.99h-1.195l-2.129-3.648 3.324-7.802h4.519l4.444 11.45zm-2.241-11.45h4.145l1.641 4.443 1.011-4.443h3.883v3.371l-3.921 8.079h-4.518l1.606-3.268-3.847-8.182zm-8.497 11.45h-4.895l-2.214-3.845h-.469v3.845h-4.46v-11.45h4.46v3.843h.603l2.08-3.843h4.895l-3.47 5.741 3.47 5.709zm-14.201-29.9h-6.913v2.243c-4.204.09-8.698.291-13.522.616V5.578h13.522v10.45h6.913V5.578H151.1v23.418a193.895 193.895 0 0 0-13.522-.551v-2.19zm-39.137-10.45l-4.419 15.558c-4.128.508-8.43 1.081-12.963 1.742L91.721 5.578h13.283l9.903 23.698c-3.712.274-7.594.613-11.709 1.04l-4.757-14.511zm-61.233 20.1c-4.009-3.783-6.035-8.958-6.035-14.764C31.173 9.275 39.579.002 56.258.002c16.678 0 25.15 9.273 25.15 21.139 0 4.705-1.354 8.989-4.002 12.463-16.119 2.163-29.4 2.701-40.198 2.301zm32.051-14.829c-.156-1.901-.391-4.418-4.805-7.288-4.414-2.871-5.704-4.011-5.274-5.152.43-1.14 2.071-2.853 2.852-3.058.781-.205.508-1.031-.625-.952-1.133.078-5.078-.63-8.516 4.443 0 0-13.595-.944-9.766 9.556 0 0 .312.314-.235.628-.547.315-2.188 1.967-1.719 2.675.469.708 1.954 1.611 4.102-.394 0 0 .508-.039.313.315-.196.354-1.055 1.101-.742 1.494.312.393.585.393 1.367 0 .781-.393 5-3.933 6.68-3.461 1.68.472 3.945 2.871 4.336 3.461.391.59 2.031 1.416 1.992.826-.039-.59-2.422-4.444-.742-4.797 1.68-.355 7.305.55 7.462 4.01.156 3.46-4.845 1.652-4.845 1.652s-3.554-.865-3.047 2.241c0 0 .235-1.061 1.485-.275 1.25.786 3.36 1.848 5.039.59 0 0-1.406.983-.82 2.005.586 1.023 1.719 1.691 1.289 3.461 0 0 1.172.471 1.836-1.495.664-1.966 0-3.893-.547-4.797 0 0-.117-.354.313-.747.429-.393 2.773-3.04 2.617-4.941zM25.51 35.039C12.403 33.533 4.313 30.637-.003 28.604V5.578h17.089c7.297 0 11.331 2.4 11.331 7.87 0 3.024-.952 5.292-4.397 6.671 3.989 1.2 5.666 3.868 5.666 7.559 0 3.718-1.614 6.012-4.176 7.361zM14.435 13.06h-2.719v3.776h2.719c1.317 0 1.81-.988 1.81-1.888 0-.899-.493-1.888-1.81-1.888zm1.206 10.912h-3.925v4.778h3.925c1.733 0 2.345-1.168 2.345-2.389 0-1.22-.612-2.389-2.345-2.389zm1.608 20.733l2.593 7.054v4.396h-2.895l-.385-1.309h-3.421l-.386 1.309h-4.51l4.209-11.45h4.795zm-1.543 7.196l-.502-1.766a11.675 11.675 0 0 1-.353-1.718 11.672 11.672 0 0 1-.351 1.718l-.52 1.766h1.726zm8.995-3.353h.605l2.078-3.843h4.897l-3.471 5.741 3.471 5.709h-4.897l-2.213-3.845h-.47v3.845h-4.459v-11.45h4.459v3.843zm13.901-3.843c2.699 0 4.191.883 4.191 2.894 0 1.113-.351 1.946-1.626 2.455 1.475.44 2.096 1.423 2.096 2.779 0 2.603-2.146 3.322-4.796 3.322h-6.186v-11.45h6.321zm-1.862 8.342h1.291c.571 0 .772-.361.772-.737s-.201-.736-.772-.736H36.74v1.473zm0-3.893h1.107c.537 0 .738-.361.738-.687 0-.328-.201-.688-.738-.688H36.74v1.375zm7.089 3.74c0-.724-.06-1.297-.431-1.793l2.351-6.396h4.795l4.208 11.45h-4.51l-.386-1.309h-3.42l-.386 1.309h-4.51l.031-.085c1.525-.427 2.258-1.411 2.258-3.176zm5.172-.993l-.503-1.766a11.674 11.674 0 0 1-.352-1.718 11.546 11.546 0 0 1-.352 1.718l-.52 1.766h1.727zm19.974-6.544v-1.504h3.957v1.504c2.192.185 3.818.98 4.726 2.274v5.596c-.908 1.294-2.534 2.088-4.726 2.274v1.506h-3.957v-1.506c-3.487-.295-5.549-2.127-5.549-5.071 0-2.946 2.062-4.778 5.549-5.073zm3.873 6.758c.99-.164 1.275-.916 1.275-1.685s-.285-1.523-1.275-1.685v3.37zm-3.788 0v-3.37c-.99.162-1.275.916-1.275 1.685s.285 1.521 1.275 1.685zm13.642-4.957c0 .605 0 1.194-.118 1.996l3.488-4.449h3.537v11.45H85.15v-2.454c0-.606 0-1.194.117-1.996l-3.487 4.45h-3.538v-11.45h4.46v2.453zm16.911 1.309h-2.525v7.688h-4.46v-7.688h-2.313v-3.762h9.298v3.762zm5.464.081h2.281v-3.843h4.46v11.45h-4.46V52.31h-2.281v3.845h-4.46v-11.45h4.46v3.843zm16.716-.483l-4.852-.09v.982h4.863v2.912h-4.863v.981h4.863v3.305h-9.322v-11.45l9.311.09v3.27zm6.845-3.848c3.076 0 5.606 2.272 6.074 5.236h-4.562c-.326-.509-.866-.865-1.512-.865-1.011 0-1.83.824-1.83 1.842 0 1.017.819 1.842 1.83 1.842.884 0 1.586-.644 1.758-1.482h4.378c-.189 3.26-2.85 5.853-6.136 5.853-3.409 0-6.172-2.782-6.172-6.213s2.763-6.213 6.172-6.213zm52.957 3.758h-5.098v.885h1.542c2.214 0 4.545.604 4.545 3.647 0 3.043-2.331 3.648-4.545 3.648h-6.001v-11.45h9.557v3.27zm-5.098 5.334h.705c.619 0 1.022-.181 1.022-.802s-.403-.802-1.022-.802h-.705v1.604z"/></svg>

<svg 
 xmlns="http://www.w3.org/2000/svg"
 xmlns:xlink="http://www.w3.org/1999/xlink"
 width="190px" height="57px">
<path fill-rule="evenodd"  fill="rgb(83, 147, 221)"
 d="M154.068,29.252 L163.494,5.578 L177.616,5.578 L190.009,36.705 C179.399,33.709 168.892,30.666 154.068,29.252 ZM171.593,20.341 C171.147,18.874 170.754,17.228 170.555,15.672 C170.356,17.228 169.964,18.874 169.517,20.341 L167.986,25.144 L173.073,25.144 L171.593,20.341 ZM162.517,56.155 L157.998,56.155 L155.869,49.165 L153.554,56.155 L152.359,56.155 L150.230,52.507 L153.554,44.705 L158.073,44.705 L162.517,56.155 ZM160.276,44.705 L164.421,44.705 L166.062,49.148 L167.073,44.705 L170.956,44.705 L170.956,48.076 L167.035,56.155 L162.517,56.155 L164.123,52.887 L160.276,44.705 ZM151.779,56.155 L146.884,56.155 L144.670,52.310 L144.201,52.310 L144.201,56.155 L139.741,56.155 L139.741,44.705 L144.201,44.705 L144.201,48.548 L144.804,48.548 L146.884,44.705 L151.779,44.705 L148.309,50.446 L151.779,56.155 ZM137.578,26.255 L130.665,26.255 L130.665,28.498 C126.461,28.588 121.967,28.789 117.143,29.114 L117.143,5.578 L130.665,5.578 L130.665,16.028 L137.578,16.028 L137.578,5.578 L151.100,5.578 L151.100,28.996 C146.956,28.675 142.475,28.482 137.578,28.445 L137.578,26.255 ZM98.441,15.805 L94.022,31.363 C89.894,31.871 85.592,32.444 81.059,33.105 L91.721,5.578 L105.004,5.578 L114.907,29.276 C111.195,29.550 107.313,29.889 103.198,30.316 L98.441,15.805 ZM37.208,35.905 C33.199,32.122 31.173,26.947 31.173,21.141 C31.173,9.275 39.579,0.002 56.258,0.002 C72.936,0.002 81.408,9.275 81.408,21.141 C81.408,25.846 80.054,30.130 77.406,33.604 C61.287,35.767 48.006,36.305 37.208,35.905 ZM69.259,21.076 C69.103,19.175 68.868,16.658 64.454,13.788 C60.040,10.917 58.750,9.777 59.180,8.636 C59.610,7.496 61.251,5.783 62.032,5.578 C62.813,5.373 62.540,4.547 61.407,4.626 C60.274,4.704 56.329,3.996 52.891,9.069 C52.891,9.069 39.296,8.125 43.125,18.625 C43.125,18.625 43.437,18.939 42.890,19.253 C42.343,19.568 40.702,21.220 41.171,21.928 C41.640,22.636 43.125,23.539 45.273,21.534 C45.273,21.534 45.781,21.495 45.586,21.849 C45.390,22.203 44.531,22.950 44.844,23.343 C45.156,23.736 45.429,23.736 46.211,23.343 C46.992,22.950 51.211,19.410 52.891,19.882 C54.571,20.354 56.836,22.753 57.227,23.343 C57.618,23.933 59.258,24.759 59.219,24.169 C59.180,23.579 56.797,19.725 58.477,19.372 C60.157,19.017 65.782,19.922 65.939,23.382 C66.095,26.842 61.094,25.034 61.094,25.034 C61.094,25.034 57.540,24.169 58.047,27.275 C58.047,27.275 58.282,26.214 59.532,27.000 C60.782,27.786 62.892,28.848 64.571,27.590 C64.571,27.590 63.165,28.573 63.751,29.595 C64.337,30.618 65.470,31.286 65.040,33.056 C65.040,33.056 66.212,33.527 66.876,31.561 C67.540,29.595 66.876,27.668 66.329,26.764 C66.329,26.764 66.212,26.410 66.642,26.017 C67.071,25.624 69.415,22.977 69.259,21.076 ZM25.510,35.039 C12.403,33.533 4.313,30.637 -0.003,28.604 L-0.003,5.578 L17.086,5.578 C24.383,5.578 28.417,7.978 28.417,13.448 C28.417,16.472 27.465,18.740 24.020,20.119 C28.009,21.319 29.686,23.987 29.686,27.678 C29.686,31.396 28.072,33.690 25.510,35.039 ZM14.435,13.060 L11.716,13.060 L11.716,16.836 L14.435,16.836 C15.752,16.836 16.245,15.848 16.245,14.948 C16.245,14.049 15.752,13.060 14.435,13.060 ZM15.641,23.972 L11.716,23.972 L11.716,28.750 L15.641,28.750 C17.374,28.750 17.986,27.582 17.986,26.361 C17.986,25.141 17.374,23.972 15.641,23.972 ZM17.249,44.705 L19.842,51.759 L19.842,56.155 L16.947,56.155 L16.562,54.846 L13.141,54.846 L12.755,56.155 L8.245,56.155 L12.454,44.705 L17.249,44.705 ZM15.706,51.901 L15.204,50.135 C15.053,49.595 14.919,48.990 14.851,48.417 C14.784,48.990 14.650,49.595 14.500,50.135 L13.980,51.901 L15.706,51.901 ZM24.701,48.548 L25.306,48.548 L27.384,44.705 L32.281,44.705 L28.810,50.446 L32.281,56.155 L27.384,56.155 L25.171,52.310 L24.701,52.310 L24.701,56.155 L20.242,56.155 L20.242,44.705 L24.701,44.705 L24.701,48.548 ZM38.602,44.705 C41.301,44.705 42.793,45.588 42.793,47.599 C42.793,48.712 42.442,49.545 41.167,50.054 C42.642,50.494 43.263,51.477 43.263,52.833 C43.263,55.436 41.117,56.155 38.467,56.155 L32.281,56.155 L32.281,44.705 L38.602,44.705 ZM36.740,53.047 L38.031,53.047 C38.602,53.047 38.803,52.686 38.803,52.310 C38.803,51.934 38.602,51.574 38.031,51.574 L36.740,51.574 L36.740,53.047 ZM36.740,49.154 L37.847,49.154 C38.384,49.154 38.585,48.793 38.585,48.467 C38.585,48.139 38.384,47.779 37.847,47.779 L36.740,47.779 L36.740,49.154 ZM43.829,52.894 C43.829,52.170 43.769,51.597 43.398,51.101 L45.749,44.705 L50.544,44.705 L54.752,56.155 L50.242,56.155 L49.856,54.846 L46.436,54.846 L46.050,56.155 L41.540,56.155 L41.571,56.070 C43.096,55.643 43.829,54.659 43.829,52.894 ZM49.001,51.901 L48.498,50.135 C48.347,49.595 48.214,48.990 48.146,48.417 C48.079,48.990 47.945,49.595 47.794,50.135 L47.274,51.901 L49.001,51.901 ZM68.975,45.357 L68.975,43.853 L72.932,43.853 L72.932,45.357 C75.124,45.542 76.750,46.337 77.658,47.631 L77.658,53.227 C76.750,54.521 75.124,55.315 72.932,55.501 L72.932,57.007 L68.975,57.007 L68.975,55.501 C65.488,55.206 63.426,53.374 63.426,50.430 C63.426,47.484 65.488,45.652 68.975,45.357 ZM72.848,52.115 C73.838,51.951 74.123,51.199 74.123,50.430 C74.123,49.661 73.838,48.907 72.848,48.745 L72.848,52.115 ZM69.060,52.115 L69.060,48.745 C68.070,48.907 67.785,49.661 67.785,50.430 C67.785,51.199 68.070,51.951 69.060,52.115 ZM82.702,47.158 C82.702,47.763 82.702,48.352 82.584,49.154 L86.072,44.705 L89.609,44.705 L89.609,56.155 L85.150,56.155 L85.150,53.701 C85.150,53.095 85.150,52.507 85.267,51.705 L81.780,56.155 L78.242,56.155 L78.242,44.705 L82.702,44.705 L82.702,47.158 ZM99.613,48.467 L97.088,48.467 L97.088,56.155 L92.628,56.155 L92.628,48.467 L90.315,48.467 L90.315,44.705 L99.613,44.705 L99.613,48.467 ZM105.077,48.548 L107.358,48.548 L107.358,44.705 L111.818,44.705 L111.818,56.155 L107.358,56.155 L107.358,52.310 L105.077,52.310 L105.077,56.155 L100.617,56.155 L100.617,44.705 L105.077,44.705 L105.077,48.548 ZM121.793,48.065 L116.941,47.975 L116.941,48.957 L121.804,48.957 L121.804,51.869 L116.941,51.869 L116.941,52.850 L121.804,52.850 L121.804,56.155 L112.482,56.155 L112.482,44.705 L121.793,44.795 L121.793,48.065 ZM128.638,44.217 C131.714,44.217 134.244,46.489 134.712,49.453 L130.150,49.453 C129.824,48.944 129.284,48.588 128.638,48.588 C127.627,48.588 126.808,49.412 126.808,50.430 C126.808,51.447 127.627,52.272 128.638,52.272 C129.522,52.272 130.224,51.628 130.396,50.790 L134.774,50.790 C134.585,54.050 131.924,56.643 128.638,56.643 C125.229,56.643 122.466,53.861 122.466,50.430 C122.466,46.999 125.229,44.217 128.638,44.217 ZM181.595,47.975 L176.497,47.975 L176.497,48.860 L178.039,48.860 C180.253,48.860 182.584,49.464 182.584,52.507 C182.584,55.550 180.253,56.155 178.039,56.155 L172.038,56.155 L172.038,44.705 L181.595,44.705 L181.595,47.975 ZM176.497,53.309 L177.202,53.309 C177.821,53.309 178.224,53.128 178.224,52.507 C178.224,51.886 177.821,51.705 177.202,51.705 L176.497,51.705 L176.497,53.309 Z"/>
</svg>
